brandFactory_export/2.Regular/Museo_2Regular.svg

<?xml version="1.0" encoding="UTF-8"?>
<svg width="24px" height="24px" viewBox="0 0 24 24" version="1.1" xmlns="http://www.w3.org/2000/svg" xmlns:xlink="http://www.w3.org/1999/xlink">
    <title>2.Regular/Museo_2Regular</title>
    <g id="Symbols" stroke="none" stroke-width="1" fill="none" fill-rule="evenodd">
        <g id="2.Regular/Museo_2Regular" fill="#5CB615" fill-rule="nonzero">
            <path d="M17.8857143,18.6184874 L19.2907563,18.6184874 L19.2907563,9.19663866 L17.8857143,9.19663866 L17.8857143,18.6184874 L17.8857143,18.6184874 Z M1.5697479,22.1445378 L22.1243697,22.1445378 L22.1243697,20.097479 L1.5697479,20.097479 L1.5697479,22.1445378 Z M4.44033613,18.6184874 L5.84537815,18.6184874 L5.84537815,9.19663866 L4.44033613,9.19663866 L4.44033613,18.6184874 L4.44033613,18.6184874 Z M11.1596639,18.6184874 L12.5647059,18.6184874 L12.5647059,9.19663866 L11.1596639,9.19663866 L11.1596639,18.6184874 L11.1596639,18.6184874 Z M7.3210084,18.6184874 L9.6907563,18.6184874 L9.6907563,9.19663866 L7.3210084,9.19663866 L7.3210084,18.6184874 L7.3210084,18.6184874 Z M14.0403361,18.6184874 L16.410084,18.6184874 L16.410084,9.19663866 L14.0403361,9.19663866 L14.0403361,18.6184874 L14.0403361,18.6184874 Z M11.8453782,1.64033613 L20.5680672,7.71764706 L20.0369748,7.71764706 C20.0336134,7.71764706 20.0302521,7.71428571 20.0268908,7.71428571 C20.0235294,7.71428571 20.0201681,7.71764706 20.0168067,7.71764706 L17.1563025,7.71764706 C17.1529412,7.71764706 17.1495798,7.71428571 17.1462185,7.71428571 C17.1428571,7.71428571 17.1394958,7.71764706 17.1361345,7.71764706 L13.3142857,7.71764706 C13.3109244,7.71764706 13.307563,7.71428571 13.3042017,7.71428571 C13.3008403,7.71428571 13.297479,7.71764706 13.2941176,7.71764706 L10.4336134,7.71764706 C10.4302521,7.71764706 10.4268908,7.71428571 10.4235294,7.71428571 C10.4201681,7.71428571 10.4168067,7.71764706 10.4134454,7.71764706 L6.59159664,7.71764706 C6.58823529,7.71764706 6.58487395,7.71428571 6.58151261,7.71428571 C6.57815126,7.71428571 6.57478992,7.71764706 6.57142857,7.71764706 L3.71092437,7.71764706 C3.70756303,7.71764706 3.70420168,7.71428571 3.70084034,7.71428571 C3.69747899,7.71428571 3.69747899,7.71764706 3.6907563,7.71764706 L3.12268908,7.71764706 L11.8453782,1.64033613 Z M22.9210084,9.19663866 C23.2436975,9.19663866 23.5294118,8.98823529 23.6235294,8.6789916 C23.7176471,8.3697479 23.6033613,8.03697479 23.3411765,7.8487395 L12.2655462,0.131092437 C12.0134454,-0.043697479 11.6806723,-0.043697479 11.4252101,0.131092437 L0.349579832,7.8487395 C0.0840336134,8.03361345 -0.0302521008,8.3697479 0.0672268908,8.67563025 C0.164705882,8.98487395 0.447058824,9.19327731 0.769747899,9.19327731 L2.96470588,9.19327731 L2.96470588,18.6151261 L0.830252101,18.6151261 C0.423529412,18.6151261 0.0941176471,18.9478992 0.0941176471,19.3546218 L0.0941176471,22.8806723 C0.0941176471,23.287395 0.423529412,23.6201681 0.830252101,23.6201681 L22.8571429,23.6201681 C23.2638655,23.6201681 23.5932773,23.287395 23.5932773,22.8806723 L23.5932773,19.3546218 C23.5932773,18.9478992 23.2638655,18.6151261 22.8571429,18.6151261 L20.7630252,18.6151261 L20.7630252,9.19327731 L22.9210084,9.19327731 L22.9210084,9.19663866 Z" id="Museo_2Regular"></path>
        </g>
    </g>
</svg>

<svg width="24" height="24" viewBox="0 0 24 24" xmlns="http://www.w3.org/2000/svg"><path d="M17.886 18.618h1.405V9.197h-1.405v9.421zM1.57 22.145h20.554v-2.048H1.57v2.048zm2.87-3.527h1.405V9.197H4.44v9.421zm6.72 0h1.405V9.197H11.16v9.421zm-3.839 0h2.37V9.197H7.32v9.421zm6.72 0h2.37V9.197h-2.37v9.421zM11.844 1.64l8.723 6.078h-.531c-.003 0-.007-.004-.01-.004s-.007.004-.01.004h-2.86c-.004 0-.007-.004-.01-.004-.004 0-.008.004-.01.004h-3.823c-.003 0-.006-.004-.01-.004-.003 0-.007.004-.01.004h-2.86c-.004 0-.007-.004-.01-.004-.004 0-.007.004-.01.004H6.591c-.004 0-.007-.004-.01-.004-.004 0-.007.004-.01.004H3.71c-.003 0-.007-.004-.01-.004-.004 0-.004.004-.01.004h-.568l8.722-6.078zm11.076 7.557a.732.732 0 00.703-.518.752.752 0 00-.283-.83L12.266.13a.739.739 0 00-.84 0L.35 7.85a.737.737 0 00-.283.827c.098.309.38.517.703.517h2.195v9.422H.83a.739.739 0 00-.736.74v3.526c0 .406.33.74.736.74h22.027a.739.739 0 00.736-.74v-3.526c0-.407-.33-.74-.736-.74h-2.094V9.193h2.158v.004z" fill="#5CB615" fill-rule="nonzero"/></svg>
